material/.icons/material/locker-multiple.svg

<svg xmlns="http://www.w3.org/2000/svg" viewBox="0 0 24 24"><path d="M3 2h18a2 2 0 012 2v16a2 2 0 01-2 2H3a2 2 0 01-2-2V4a2 2 0 012-2m10 2v16h8V4h-8M3 4v16h8V4H3m2 9h2v4H5v-4m0-7h4v1.5H5V6m0 3h4v1.5H5V9m10 4h2v4h-2v-4m0-7h4v1.5h-4V6m0 3h4v1.5h-4V9z"/></svg>

<?xml version="1.0" encoding="UTF-8"?><!DOCTYPE svg PUBLIC "-//W3C//DTD SVG 1.1//EN" "http://www.w3.org/Graphics/SVG/1.1/DTD/svg11.dtd"><svg xmlns="http://www.w3.org/2000/svg" xmlns:xlink="http://www.w3.org/1999/xlink" version="1.1" id="mdi-locker-multiple" width="24" height="24" viewBox="0 0 24 24"><path d="M3,2H21A2,2 0 0,1 23,4V20A2,2 0 0,1 21,22H3A2,2 0 0,1 1,20V4A2,2 0 0,1 3,2M13,4V20H21V4H13M3,4V20H11V4H3M5,13H7V17H5V13M5,6H9V7.5H5V6M5,9H9V10.5H5V9M15,13H17V17H15V13M15,6H19V7.5H15V6M15,9H19V10.5H15V9Z" /></svg>
